X:588
T:Reel 588
M:4/4
K:Gmaj
L:1/8
 (3GAB |c2Bc A2GE|DEGA BGAB|cBcd eAag|edef gedB|GEE2 DEFG|AGAG AGEG|cAGF GABd| (3efg dc BGG2|f2af gfed|edab bgef|g2ef gfge|dBGA BGG2|fgag fdegfg|agab agef|gfaf gfed| (3efg dc BGG2|
